public/assets/iconz.svg

<svg width="176" height="77" viewBox="0 0 176 77" fill="none" xmlns="http://www.w3.org/2000/svg">
<path d="M42.0376 44.1442L48.6024 33.1178L55.176 44.1442L48.6024 41.4492L42.0376 44.1442Z" fill="black"/>
<path d="M82.0337 51.0661L80.0801 48.4173C79.0148 49.444 77.7038 50.2524 76.2405 50.7848C74.7772 51.3172 73.1976 51.5604 71.6145 51.4973C66.3345 51.4973 62.0049 48.8485 62.0049 43.9975V43.9051C62.0049 38.5613 66.6513 36.0896 73.2865 36.0896C75.6156 36.0734 77.9298 36.4148 80.1241 37.0983V36.6825C80.1241 33.8027 78.0913 32.2011 74.1225 32.2011C71.4707 32.2032 68.8444 32.6529 66.3873 33.5255L64.4337 28.2587C67.8359 26.8908 71.5497 26.2193 75.2929 26.2952C83.9609 26.2952 87.7801 30.2299 87.7801 36.8519V51.0661H82.0337ZM80.2737 41.1947C78.6773 40.5787 76.9496 40.2663 75.2049 40.2784C71.8081 40.2784 69.7225 41.4642 69.7225 43.6587V43.7511C69.7225 45.6299 71.4825 46.7233 74.0609 46.7233C77.7657 46.7233 80.2737 44.9369 80.2737 42.4267V41.1947Z" fill="black"/>
<path d="M110.634 51.5285C108.954 51.557 107.291 51.2411 105.777 50.6059C104.262 49.9708 102.939 49.0341 101.913 47.871L99.2199 51.0742H93.9399V17.7101H101.86V30.0917C102.817 28.8432 104.117 27.8246 105.641 27.1292C107.164 26.4337 108.863 26.0836 110.581 26.1108C117.11 26.1108 123.323 30.5922 123.323 38.7696V38.862C123.385 47.0471 117.269 51.5285 110.634 51.5285ZM115.438 38.7773C115.438 34.7117 112.306 32.009 108.601 32.009C104.896 32.009 101.807 34.7117 101.807 38.7773V38.8697C101.807 42.9353 104.887 45.638 108.601 45.638C112.314 45.638 115.438 42.9892 115.438 38.8697V38.7773Z" fill="black"/>
<path d="M128.955 51.0665V17.7101H136.875V51.0665H128.955Z" fill="black"/>
<path d="M162.483 44.0901C160.822 45.3848 158.662 46.0808 156.438 46.0382C152.918 46.0382 150.374 44.3981 149.591 41.2411H169.074C169.127 40.602 169.18 40.1939 169.18 39.5009V39.4085C169.18 32.4785 164.903 26.1106 155.549 26.1106C147.4 26.1106 141.706 31.8702 141.706 38.8618V38.9542C141.68 46.4463 147.928 51.5899 156.332 51.5899C159.982 51.6932 163.536 50.5626 166.258 48.4329L162.483 44.0901ZM155.549 31.6931C158.893 31.6931 160.978 33.7952 161.454 36.8983H149.486C150.119 33.749 152.24 31.6931 155.549 31.6931Z" fill="black"/>
<path d="M34.3201 49.4881C32.5601 48.1406 29.7705 47.4245 26.0393 47.3552L18.2777 47.2474C17.6353 47.2474 15.9193 47.2012 15.5145 46.7315C15.455 46.6098 15.4243 46.4788 15.4243 46.3465C15.4243 46.2141 15.455 46.0831 15.5145 45.9615C15.7597 45.5356 16.0872 45.1501 16.4825 44.8219C17.9238 45.1212 19.4013 45.266 20.8825 45.2531C22.6452 45.2652 24.3994 45.0392 26.0833 44.5832C27.6173 44.169 29.0456 43.4997 30.2897 42.612C31.4783 41.759 32.4318 40.6826 33.0793 39.4627C33.7508 38.1753 34.0875 36.7736 34.0649 35.3586C34.0747 34.553 33.9593 33.75 33.7217 32.9716C33.6689 32.8099 33.5985 32.6482 33.5369 32.4942C33.4753 32.3402 33.4049 32.1631 33.3257 32.0091C33.2465 31.8551 33.1145 31.5856 33.0001 31.3854L37.2065 30.9465V26.0724L26.6465 26.3034C26.4177 26.2264 26.1977 26.134 25.9601 26.0647C24.3029 25.5849 22.5664 25.3482 20.8209 25.364C18.922 25.3439 17.0329 25.6042 15.2329 26.134C13.6787 26.5847 12.2427 27.3019 11.0089 28.2438C9.87641 29.1303 8.97591 30.2203 8.36893 31.4393C7.76739 32.6807 7.46771 34.018 7.48893 35.3663C7.45714 36.981 7.91244 38.5746 8.80893 39.9863C9.40232 40.9113 10.1631 41.746 11.0617 42.458C10.387 42.994 9.79537 43.6049 9.30173 44.2752C8.60803 45.1424 8.22432 46.1704 8.19925 47.2287C8.17419 48.287 8.50889 49.328 9.16093 50.2196C9.42122 50.5506 9.7158 50.8599 10.0409 51.1436C9.15935 51.7198 8.38974 52.4166 7.76172 53.2072C6.77091 54.4451 6.24779 55.9233 6.26572 57.4345C6.19292 58.6247 6.50522 59.8088 7.16678 60.8507C7.82833 61.8927 8.81231 62.7503 10.0057 63.325C12.2761 64.4646 15.5585 65.0498 19.7561 65.0498C21.9938 65.0501 24.2238 64.8201 26.4001 64.3645C28.322 63.9822 30.1631 63.3377 31.8561 62.4549C33.3417 61.6758 34.6174 60.6251 35.5961 59.3749C36.5431 58.1277 37.0398 56.6602 37.0217 55.163C37.0781 54.1012 36.8651 53.0417 36.398 52.0605C35.9309 51.0794 35.2213 50.2008 34.3201 49.4881ZM17.9169 53.3381L24.7633 53.4382C27.0073 53.4382 27.8433 53.8386 28.1425 54.0542C28.3848 54.2372 28.5736 54.4683 28.693 54.7282C28.8124 54.988 28.859 55.2691 28.8289 55.548C28.8289 56.4874 28.1601 57.2805 26.7785 57.9658C24.6861 58.8462 22.3739 59.2514 20.0553 59.1439C19.1455 59.1506 18.2365 59.0966 17.3361 58.9822C16.6681 58.9077 16.0177 58.7414 15.4089 58.4894C14.9918 58.3165 14.6338 58.051 14.3705 57.7194C14.1248 57.3486 14.0086 56.923 14.0361 56.4951C14.0108 55.6397 14.3711 54.8099 15.0393 54.1851C15.4185 53.8754 15.8667 53.6376 16.3558 53.4865C16.8449 53.3355 17.3644 53.2745 17.8817 53.3073L17.9169 53.3381ZM20.8121 31.0081C22.8713 31.0081 24.3849 31.4008 25.3001 32.1862C25.7792 32.6028 26.154 33.102 26.4009 33.6521C26.6479 34.2022 26.7615 34.7912 26.7345 35.3817C26.7539 35.9528 26.638 36.5213 26.3942 37.0513C26.1504 37.5814 25.7839 38.0616 25.3177 38.4617C24.4377 39.2317 22.8801 39.6244 20.8209 39.6244C18.7617 39.6244 17.3009 39.2394 16.3681 38.4694C15.9073 38.0666 15.5455 37.5855 15.3048 37.0559C15.0642 36.5262 14.9499 35.9591 14.9689 35.3894C14.9409 34.8003 15.0506 34.2124 15.2912 33.6616C15.5317 33.1108 15.8982 32.6088 16.3681 32.1862C17.2217 31.3469 18.7177 30.9542 20.7769 30.9542L20.8121 31.0081Z" fill="black"/>
</svg>

<svg xmlns="http://www.w3.org/2000/svg" width="176" height="77" fill="#000" xmlns:v="https://vecta.io/nano"><path d="M42.038 44.144l6.565-11.026 6.574 11.026-6.574-2.695-6.565 2.695zm39.996 6.922l-1.954-2.649a10.87 10.87 0 0 1-3.84 2.367 12.16 12.16 0 0 1-4.626.713c-5.28 0-9.61-2.649-9.61-7.5v-.092c0-5.344 4.646-7.815 11.282-7.815a22.5 22.5 0 0 1 6.838 1.009v-.416c0-2.88-2.033-4.481-6.002-4.481a23.21 23.21 0 0 0-7.735 1.324l-1.954-5.267c3.402-1.368 7.116-2.039 10.859-1.963 8.668 0 12.487 3.935 12.487 10.557v14.214h-5.746zm-1.76-9.871c-1.596-.616-3.324-.928-5.069-.916-3.397 0-5.482 1.186-5.482 3.38v.092c0 1.879 1.76 2.972 4.338 2.972 3.705 0 6.213-1.786 6.213-4.297v-1.232zm30.36 10.334c-1.68.029-3.343-.287-4.857-.923s-2.838-1.572-3.864-2.735l-2.693 3.203h-5.28V17.71h7.92v12.382c.957-1.248 2.257-2.267 3.781-2.962a11.49 11.49 0 0 1 4.94-1.018c6.529 0 12.742 4.481 12.742 12.659v.092c.062 8.185-6.054 12.667-12.689 12.667zm4.804-12.751c0-4.066-3.132-6.768-6.837-6.768s-6.794 2.703-6.794 6.768v.092c0 4.066 3.08 6.768 6.794 6.768s6.837-2.649 6.837-6.768v-.092zm13.517 12.289V17.71h7.92v33.356h-7.92zm33.528-6.977c-1.661 1.295-3.821 1.991-6.045 1.948-3.52 0-6.064-1.64-6.847-4.797h19.483l.106-1.74v-.092c0-6.93-4.277-13.298-13.631-13.298-8.149 0-13.843 5.76-13.843 12.751v.092c-.026 7.492 6.222 12.636 14.626 12.636 3.65.103 7.204-1.027 9.926-3.157l-3.775-4.343zm-6.934-12.397c3.344 0 5.429 2.102 5.905 5.205h-11.968c.633-3.149 2.754-5.205 6.063-5.205zM34.32 49.488c-1.76-1.348-4.55-2.064-8.281-2.133l-7.762-.108c-.642 0-2.358-.046-2.763-.516-.059-.122-.09-.253-.09-.385s.031-.263.09-.385a4.24 4.24 0 0 1 .968-1.14 20.77 20.77 0 0 0 4.4.431c1.763.012 3.517-.214 5.201-.67 1.534-.414 2.962-1.084 4.206-1.971 1.189-.853 2.142-1.929 2.79-3.149a8.57 8.57 0 0 0 .986-4.104 7.84 7.84 0 0 0-.343-2.387c-.053-.162-.123-.323-.185-.477l-.211-.485-.326-.624 4.206-.439v-4.874l-10.56.231-.686-.239c-1.657-.48-3.394-.716-5.139-.701a19.1 19.1 0 0 0-5.588.77c-1.554.451-2.99 1.168-4.224 2.11-1.132.886-2.033 1.977-2.64 3.195a8.67 8.67 0 0 0-.88 3.927c-.032 1.615.424 3.208 1.32 4.62a10.17 10.17 0 0 0 2.253 2.472c-.675.536-1.266 1.147-1.76 1.817-.694.867-1.077 1.895-1.102 2.954a4.86 4.86 0 0 0 .962 2.991c.26.331.555.64.88.924-.882.576-1.651 1.273-2.279 2.064-.991 1.238-1.514 2.716-1.496 4.227-.073 1.19.239 2.374.901 3.416s1.646 1.9 2.839 2.474c2.27 1.14 5.553 1.725 9.75 1.725a32.43 32.43 0 0 0 6.644-.685 20.41 20.41 0 0 0 5.456-1.91c1.486-.779 2.761-1.83 3.74-3.08.947-1.247 1.444-2.715 1.426-4.212a6.41 6.41 0 0 0-.624-3.102c-.467-.981-1.177-1.86-2.078-2.572zm-16.403 3.85l6.846.1c2.244 0 3.08.4 3.379.616a1.78 1.78 0 0 1 .551.674c.119.26.166.541.136.82 0 .939-.669 1.733-2.05 2.418-2.092.88-4.405 1.286-6.723 1.178a20.39 20.39 0 0 1-2.719-.162 7.1 7.1 0 0 1-1.927-.493c-.417-.173-.775-.438-1.038-.77a1.98 1.98 0 0 1-.334-1.224c-.025-.855.335-1.685 1.003-2.31a3.9 3.9 0 0 1 1.316-.699 4.27 4.27 0 0 1 1.526-.179l.035.031zm2.895-22.33c2.059 0 3.573.393 4.488 1.178a4.27 4.27 0 0 1 1.101 1.466 3.79 3.79 0 0 1 .334 1.73 3.69 3.69 0 0 1-.34 1.67c-.244.53-.61 1.01-1.077 1.41-.88.77-2.438 1.163-4.497 1.163s-3.52-.385-4.453-1.155c-.461-.403-.823-.884-1.063-1.413a3.72 3.72 0 0 1-.336-1.666 3.85 3.85 0 0 1 .322-1.728 4.31 4.31 0 0 1 1.077-1.475c.854-.839 2.35-1.232 4.409-1.232l.035.054z"/></svg>
